svgs/wear_os.svg

<svg width="192" height="192" viewBox="0 0 192 192" fill="none" xmlns="http://www.w3.org/2000/svg">
<path fill-rule="evenodd" clip-rule="evenodd" d="M37.5947 58.0222C36.4999 55.487 33.5573 54.3193 31.0222 55.414C28.487 56.5088 27.3193 59.4514 28.414 61.9865L66.414 149.987C67.5088 152.522 70.4514 153.689 72.9865 152.595C75.5217 151.5 76.6894 148.557 75.5947 146.022L37.5947 58.0222ZM52.0194 61.1572L48.6114 53.2649C44.8893 44.6454 34.8845 40.6752 26.2649 44.3973C17.6454 48.1194 13.6752 58.1242 17.3973 66.7437L55.3973 154.744C59.1194 163.363 69.1242 167.333 77.7437 163.611C83.7523 161.017 87.5016 155.369 87.9609 149.266C88.1605 146.614 87.7389 143.876 86.6114 141.265L56.1552 70.7347L52.0194 61.1572ZM64.0478 58.7426C63.8481 61.3947 64.2698 64.1328 65.3973 66.7438L95.8535 137.274L99.9892 146.851L103.397 154.744C107.119 163.363 117.124 167.334 125.744 163.611C134.363 159.889 138.333 149.885 134.611 141.265L96.6114 53.265C92.8893 44.6454 82.8845 40.6753 74.2649 44.3973C68.2564 46.9919 64.5071 52.6395 64.0478 58.7426ZM85.5947 58.0222C84.4999 55.4871 81.5573 54.3194 79.0222 55.4141C76.487 56.5088 75.3193 59.4514 76.414 61.9866L114.414 149.987C115.509 152.522 118.451 153.689 120.987 152.595C123.522 151.5 124.689 148.557 123.595 146.022L85.5947 58.0222ZM159.004 65.0044C161.766 65.0044 164.004 62.7658 164.004 60.0044C164.004 57.243 161.766 55.0044 159.004 55.0044C156.243 55.0044 154.004 57.243 154.004 60.0044C154.004 62.7658 156.243 65.0044 159.004 65.0044ZM159.004 77.0044C168.393 77.0044 176.004 69.3932 176.004 60.0044C176.004 50.6156 168.393 43.0044 159.004 43.0044C149.615 43.0044 142.004 50.6156 142.004 60.0044C142.004 69.3932 149.615 77.0044 159.004 77.0044ZM148.004 97.0044C148.004 99.7658 145.766 102.004 143.004 102.004C140.243 102.004 138.004 99.7658 138.004 97.0044C138.004 94.243 140.243 92.0044 143.004 92.0044C145.766 92.0044 148.004 94.243 148.004 97.0044ZM160.004 97.0044C160.004 106.393 152.393 114.004 143.004 114.004C133.615 114.004 126.004 106.393 126.004 97.0044C126.004 87.6156 133.615 80.0044 143.004 80.0044C152.393 80.0044 160.004 87.6156 160.004 97.0044Z" fill="black"/>
</svg>

<svg width="192" height="192" viewBox="0 0 192 192" fill="none" xmlns="http://www.w3.org/2000/svg"><path fill-rule="evenodd" clip-rule="evenodd" d="M37.595 58.022a5 5 0 0 0-9.181 3.965l38 88a5 5 0 0 0 9.18-3.965l-38-88Zm14.424 3.135-3.408-7.892c-3.722-8.62-13.726-12.59-22.346-8.868-8.62 3.722-12.59 13.727-8.868 22.347l38 88c3.722 8.619 13.727 12.589 22.347 8.867 6.008-2.594 9.758-8.242 10.217-14.345.2-2.652-.222-5.39-1.35-8.001l-30.456-70.53-4.136-9.578Zm12.029-2.414c-.2 2.652.222 5.39 1.35 8l30.456 70.531 4.135 9.577 3.408 7.893c3.722 8.619 13.727 12.59 22.347 8.867 8.619-3.722 12.589-13.726 8.867-22.346l-38-88c-3.722-8.62-13.727-12.59-22.346-8.868-6.009 2.595-9.758 8.242-10.217 14.346Zm21.547-.72a5 5 0 0 0-9.181 3.964l38 88a5.001 5.001 0 0 0 9.181-3.965l-38-88Zm73.409 6.981a5 5 0 1 0 0-9.999 5 5 0 0 0 0 10Zm0 12c9.389 0 17-7.61 17-17 0-9.388-7.611-17-17-17s-17 7.612-17 17c0 9.39 7.611 17 17 17Zm-11 20a5 5 0 1 1-10 0 5 5 0 0 1 10 0Zm12 0c0 9.389-7.611 17-17 17s-17-7.611-17-17c0-9.388 7.611-17 17-17s17 7.612 17 17Z" fill="#000"/></svg>
